public/img/icons/stars-rating.svg

<svg width="114" height="18" viewBox="0 0 114 18" fill="none" xmlns="http://www.w3.org/2000/svg">
<path d="M9 1.5L11.3175 6.195L16.5 6.9525L12.75 10.605L13.635 15.765L9 13.3275L4.365 15.765L5.25 10.605L1.5 6.9525L6.6825 6.195L9 1.5Z" fill="#27EDBD"/>
<path d="M33 1.5L35.3175 6.195L40.5 6.9525L36.75 10.605L37.635 15.765L33 13.3275L28.365 15.765L29.25 10.605L25.5 6.9525L30.6825 6.195L33 1.5Z" fill="#27EDBD"/>
<path d="M57 1.5L59.3175 6.195L64.5 6.9525L60.75 10.605L61.635 15.765L57 13.3275L52.365 15.765L53.25 10.605L49.5 6.9525L54.6825 6.195L57 1.5Z" fill="#27EDBD"/>
<path d="M81 1.5L83.3175 6.195L88.5 6.9525L84.75 10.605L85.635 15.765L81 13.3275L76.365 15.765L77.25 10.605L73.5 6.9525L78.6825 6.195L81 1.5Z" fill="#27EDBD"/>
<path d="M105 1.5L107.318 6.195L112.5 6.9525L108.75 10.605L109.635 15.765L105 13.3275L100.365 15.765L101.25 10.605L97.5 6.9525L102.682 6.195L105 1.5Z" fill="#27EDBD"/>
</svg>

<svg width="114" height="18" fill="none" xmlns="http://www.w3.org/2000/svg"><path d="M9 1.5l2.318 4.695 5.182.757-3.75 3.653.885 5.16L9 13.327l-4.635 2.438.885-5.16L1.5 6.952l5.183-.757L9 1.5zm24 0l2.318 4.695 5.182.757-3.75 3.653.885 5.16L33 13.327l-4.635 2.438.885-5.16-3.75-3.653 5.183-.757L33 1.5zm24 0l2.318 4.695 5.182.757-3.75 3.653.885 5.16L57 13.327l-4.635 2.438.885-5.16-3.75-3.653 5.182-.757L57 1.5zm24 0l2.317 4.695 5.183.757-3.75 3.653.885 5.16L81 13.327l-4.635 2.438.885-5.16-3.75-3.653 5.183-.757L81 1.5zm24 0l2.318 4.695 5.182.757-3.75 3.653.885 5.16L105 13.327l-4.635 2.438.885-5.16-3.75-3.653 5.182-.757L105 1.5z" fill="#27EDBD"/></svg>
